Numix-GalliumOS/64/actions/gtk-print-error.svg

<?xml version="1.0" encoding="UTF-8" standalone="no"?>
<svg
   xmlns:dc="http://purl.org/dc/elements/1.1/"
   xmlns:cc="http://creativecommons.org/ns#"
   xmlns:rdf="http://www.w3.org/1999/02/22-rdf-syntax-ns#"
   xmlns:svg="http://www.w3.org/2000/svg"
   xmlns="http://www.w3.org/2000/svg"
   xmlns:sodipodi="http://sodipodi.sourceforge.net/DTD/sodipodi-0.dtd"
   xmlns:inkscape="http://www.inkscape.org/namespaces/inkscape"
   width="64"
   height="64"
   viewBox="0 0 64 64"
   id="svg2"
   version="1.1"
   inkscape:version="0.91 r"
   sodipodi:docname="gtk-print-error.svg">
  <metadata
     id="metadata16">
    <rdf:RDF>
      <cc:Work
         rdf:about="">
        <dc:format>image/svg+xml</dc:format>
        <dc:type
           rdf:resource="http://purl.org/dc/dcmitype/StillImage" />
        <dc:title></dc:title>
      </cc:Work>
    </rdf:RDF>
  </metadata>
  <defs
     id="defs14" />
  <sodipodi:namedview
     pagecolor="#ffffff"
     bordercolor="#666666"
     borderopacity="1"
     objecttolerance="10"
     gridtolerance="10"
     guidetolerance="10"
     inkscape:pageopacity="0"
     inkscape:pageshadow="2"
     inkscape:window-width="1366"
     inkscape:window-height="747"
     id="namedview12"
     showgrid="true"
     inkscape:zoom="2.6074563"
     inkscape:cx="-80.596884"
     inkscape:cy="1.1094971"
     inkscape:window-x="0"
     inkscape:window-y="21"
     inkscape:window-maximized="1"
     inkscape:current-layer="svg2">
    <inkscape:grid
       type="xygrid"
       id="grid4169" />
  </sodipodi:namedview>
  <g
     style="fill-rule:evenodd"
     id="g4"
     transform="scale(2,2)">
    <path
       style="fill:#aaaaaa;fill-opacity:0.94100001"
       d="m 9.332031,0.0078125 13.335938,0 C 26,0.0078125 26,-0.324219 26,3.339844 l 0,13.328125 C 26,20 26,20 22.667969,20 L 9.332031,20 C 6,20 6,20 6,16.667969 L 6,3.339844 C 6,0.0078125 6,0.0078125 9.332031,0.0078125 Z"
       id="path6"
       inkscape:connector-curvature="0" />
    <path
       style="fill:#cccccc"
       d="M 3.199219,8 28.800781,8 C 32,8 32,8 32,11.199219 l 0,9.601562 C 32,24 32,24 28.800781,24 L 3.199219,24 C 0,24 0,24 0,20.800781 L 0,11.199219 C 0,8 0,8 3.199219,8 Z"
       id="path8"
       inkscape:connector-curvature="0" />
  </g>
  <path
     style="fill:#dc322f"
     d="m 12,32 40,0 0,32 -40,0 z"
     id="path10"
     inkscape:connector-curvature="0" />
  <g
     id="g4195-7"
     style="fill-rule:evenodd"
     transform="matrix(0.7,0,0,0.7,33.2,-2.8)">
    <path
       id="path4197-0"
       d="M 44,24 C 44,35.046875 35.046875,44 24,44 12.953125,44 4,35.046875 4,24 4,12.953125 12.953125,4 24,4 35.046875,4 44,12.953125 44,24 Z"
       style="fill:#dc322f"
       inkscape:connector-curvature="0" />
    <path
       id="path4199-0"
       d="m 14.011719,14 0,3.332031 c -0.07422,0.9375 0.238281,1.890625 0.941406,2.539063 l 4.273437,4.203125 -4.273437,4.203125 c -0.628906,0.625 -0.941406,1.507812 -0.941406,2.390625 l 0,3.332031 3.332031,0 c 0.878906,0 1.761719,-0.316406 2.386719,-0.941406 l 4.273437,-4.277344 4.273438,4.277344 C 28.902344,33.683594 29.785156,34 30.667969,34 L 34,34 34,30.667969 c 0,-0.882813 -0.316406,-1.765625 -0.941406,-2.390625 l -4.199219,-4.203125 4.273437,-4.203125 C 33.847656,19.207031 34,18.289062 34,17.332031 L 34,14 30.667969,14 c -0.800781,0.02344 -1.433594,0.320312 -2.316407,1.085938 l -4.347656,4.203124 -4.273437,-4.203124 C 19.140625,14.476562 18.335938,14.039062 17.488281,14 17.453125,14 17.375,14 17.34375,14 Z"
       style="fill:#ffffff"
       inkscape:connector-curvature="0" />
    <path
       id="path4201-2"
       d="m 14.011719,14 0,3.332031 c -0.07422,0.9375 0.238281,1.890625 0.941406,2.539063 l 4.273437,4.203125 -4.273437,4.203125 c -0.628906,0.625 -0.941406,1.507812 -0.941406,2.390625 l 0,3.332031 3.332031,0 c 0.878906,0 1.761719,-0.316406 2.386719,-0.941406 l 4.273437,-4.277344 4.273438,4.277344 C 28.902344,33.683594 29.785156,34 30.667969,34 L 34,34 34,30.667969 c 0,-0.882813 -0.316406,-1.765625 -0.941406,-2.390625 l -4.199219,-4.203125 4.273437,-4.203125 C 33.847656,19.207031 34,18.289062 34,17.332031 L 34,14 30.667969,14 c -0.800781,0.02344 -1.433594,0.320312 -2.316407,1.085938 l -4.347656,4.203124 -4.273437,-4.203124 C 19.140625,14.476562 18.335938,14.039062 17.488281,14 17.453125,14 17.375,14 17.34375,14 Z"
       style="fill:#dc322f;fill-opacity:0.10199998"
       inkscape:connector-curvature="0" />
  </g>
</svg>

<svg xmlns="http://www.w3.org/2000/svg" viewBox="0 0 64 64">
 <g transform="scale(2,2)" style="fill-rule:evenodd">
  <path d="m 9.332 0.008 13.336 0 c 3.332 0 3.332 -0.332 3.332 3.332 l 0 13.328 c 0 3.332 0 3.332 -3.332 3.332 l -13.336 0 c -3.332 0 -3.332 0 -3.332 -3.332 l 0 -13.328 c 0 -3.332 0 -3.332 3.332 -3.332" style="fill:#aaa;fill-opacity:0.941"/>
  <path d="M 3.199219,8 28.800781,8 C 32,8 32,8 32,11.199219 l 0,9.601562 C 32,24 32,24 28.800781,24 L 3.199219,24 C 0,24 0,24 0,20.800781 L 0,11.199219 C 0,8 0,8 3.199219,8 Z" style="fill:#ccc"/>
 </g>
 <path d="m 12 32 40 0 0 32 -40 0 z" style="fill:#dc322f"/>
 <g transform="matrix(0.7,0,0,0.7,33.2,-2.8)" style="fill-rule:evenodd">
  <path d="m 44 24 c 0 11.05 -8.953 20 -20 20 -11.05 0 -20 -8.953 -20 -20 0 -11.05 8.953 -20 20 -20 11.05 0 20 8.953 20 20" style="fill:#dc322f"/>
  <path d="m 14.01 14 0 3.332 c -0.074 0.938 0.238 1.891 0.941 2.539 l 4.273 4.203 -4.273 4.203 c -0.629 0.625 -0.941 1.508 -0.941 2.391 l 0 3.332 3.332 0 c 0.879 0 1.762 -0.316 2.387 -0.941 l 4.273 -4.277 4.273 4.277 c 0.625 0.625 1.508 0.941 2.391 0.941 l 3.332 0 0 -3.332 c 0 -0.883 -0.316 -1.766 -0.941 -2.391 l -4.199 -4.203 4.273 -4.203 c 0.715 -0.664 0.867 -1.582 0.867 -2.539 l 0 -3.332 -3.332 0 c -0.801 0.023 -1.434 0.32 -2.316 1.086 l -4.348 4.203 -4.273 -4.203 c -0.59 -0.609 -1.395 -1.047 -2.242 -1.086 -0.035 0 -0.113 0 -0.145 0" style="fill:#fff"/>
  <path d="m 14.01 14 0 3.332 c -0.074 0.938 0.238 1.891 0.941 2.539 l 4.273 4.203 -4.273 4.203 c -0.629 0.625 -0.941 1.508 -0.941 2.391 l 0 3.332 3.332 0 c 0.879 0 1.762 -0.316 2.387 -0.941 l 4.273 -4.277 4.273 4.277 c 0.625 0.625 1.508 0.941 2.391 0.941 l 3.332 0 0 -3.332 c 0 -0.883 -0.316 -1.766 -0.941 -2.391 l -4.199 -4.203 4.273 -4.203 c 0.715 -0.664 0.867 -1.582 0.867 -2.539 l 0 -3.332 -3.332 0 c -0.801 0.023 -1.434 0.32 -2.316 1.086 l -4.348 4.203 -4.273 -4.203 c -0.59 -0.609 -1.395 -1.047 -2.242 -1.086 -0.035 0 -0.113 0 -0.145 0" style="fill:#dc322f;fill-opacity:0.102"/>
 </g>
</svg>
